img/time-3.svg

<svg width="20" height="18" viewBox="0 0 20 18" fill="none" xmlns="http://www.w3.org/2000/svg">
<path d="M0 18H18V16H0V18ZM18 5H16V2H18V5ZM18 0H2V10C2 11.0609 2.42143 12.0783 3.17157 12.8284C3.92172 13.5786 4.93913 14 6 14H12C13.0609 14 14.0783 13.5786 14.8284 12.8284C15.5786 12.0783 16 11.0609 16 10V7H18C18.5304 7 19.0391 6.78929 19.4142 6.41421C19.7893 6.03914 20 5.53043 20 5V2C20 0.89 19.1 0 18 0Z" fill="#BC9B77"/>
</svg>

<svg width="20" height="18" fill="none" xmlns="http://www.w3.org/2000/svg"><path d="M0 18h18v-2H0v2zM18 5h-2V2h2v3zm0-5H2v10a4 4 0 004 4h6a4 4 0 004-4V7h2a2 2 0 002-2V2a2 2 0 00-2-2z" fill="#BC9B77"/></svg>
